src/assets/images/human-shadow.svg

<svg width="401" height="473" viewBox="0 0 401 473" fill="none" xmlns="http://www.w3.org/2000/svg">
<ellipse cx="175" cy="372" rx="174" ry="12" fill="black" fill-opacity="0.5"/>
<path fill-rule="evenodd" clip-rule="evenodd" d="M290.611 94.8613C288.169 93.9701 285.842 92.6677 283.72 90.8593C267.696 77.2081 274.567 56.6122 284.264 45.8895C293.962 35.1668 353.284 39.4439 325.299 89.1176C325.181 89.1887 325.061 89.2602 324.939 89.3321C321.81 99.2876 324.449 107.827 327.615 118.072C328.906 122.251 330.285 126.714 331.396 131.672L301.716 129.546C293.558 118.468 290.466 107.302 290.611 94.8613Z" fill="#F5B9AB"/>
<path d="M283.72 90.8593L283.266 91.3917L283.72 90.8593ZM290.611 94.8613L290.851 94.2042C291.13 94.3059 291.314 94.5726 291.311 94.8695L290.611 94.8613ZM284.264 45.8895L284.783 46.3586L284.264 45.8895ZM325.299 89.1176L325.909 89.4609C325.849 89.5662 325.764 89.6544 325.66 89.7168L325.299 89.1176ZM324.939 89.3321L324.272 89.1224C324.324 88.957 324.435 88.8168 324.585 88.729L324.939 89.3321ZM327.615 118.072L326.946 118.279L327.615 118.072ZM331.396 131.672L332.078 131.519C332.127 131.735 332.07 131.961 331.926 132.129C331.782 132.296 331.567 132.386 331.346 132.37L331.396 131.672ZM301.716 129.546L301.666 130.243C301.462 130.229 301.274 130.125 301.153 129.96L301.716 129.546ZM284.173 90.3269C286.229 92.078 288.481 93.3397 290.851 94.2042L290.372 95.5183C287.856 94.6005 285.456 93.2574 283.266 91.3917L284.173 90.3269ZM284.783 46.3586C280.016 51.63 275.95 59.3275 275.042 67.3548C274.138 75.3498 276.361 83.671 284.173 90.3269L283.266 91.3917C275.055 84.3964 272.702 75.594 273.652 67.1976C274.598 58.8334 278.816 50.8717 283.746 45.4203L284.783 46.3586ZM324.69 88.7743C331.639 76.4394 333.097 67.0464 331.378 60.0665C329.664 53.1054 324.752 48.3927 318.613 45.4871C312.465 42.5767 305.134 41.5073 298.738 41.8334C295.543 41.9963 292.602 42.5065 290.176 43.2961C287.737 44.0899 285.88 45.1461 284.783 46.3586L283.746 45.4203C285.073 43.9522 287.191 42.7965 289.743 41.9659C292.308 41.131 295.374 40.6042 298.667 40.4364C305.246 40.1009 312.815 41.1949 319.212 44.2227C325.618 47.2552 330.895 52.2555 332.736 59.732C334.573 67.1896 332.952 76.9589 325.909 89.4609L324.69 88.7743ZM324.585 88.729C324.705 88.6584 324.823 88.5882 324.939 88.5185L325.66 89.7168C325.54 89.7891 325.418 89.862 325.293 89.9351L324.585 88.729ZM326.946 118.279C323.79 108.063 321.068 99.3161 324.272 89.1224L325.606 89.5418C322.552 99.2591 325.108 107.591 328.283 117.866L326.946 118.279ZM330.713 131.825C329.609 126.898 328.238 122.46 326.946 118.279L328.283 117.866C329.573 122.042 330.96 126.53 332.078 131.519L330.713 131.825ZM301.766 128.848L331.446 130.975L331.346 132.37L301.666 130.243L301.766 128.848ZM291.311 94.8695C291.167 107.17 294.218 118.185 302.279 129.131L301.153 129.96C292.899 118.752 289.764 107.435 289.912 94.8531L291.311 94.8695Z" fill="black"/>
<path d="M330.624 59.1205C335.268 65.582 330.266 81.5407 326.575 85.5323C357.158 68.5629 337.796 30.276 328.36 37.2578C326.822 23.1026 310.58 18.1083 299.507 30.0799C271.747 7.66167 270.286 45.8616 280.085 51.671C289.883 57.4803 301.771 51.948 307.94 54.9437C314.11 57.9394 317.917 76.0854 319.915 66.0141C321.914 55.9427 324.818 51.0436 330.624 59.1205Z" fill="#00ADB5" stroke="black" stroke-width="1.39887"/>
<path d="M358.072 340.989L315.023 337.865L325.383 221.989C325.383 221.989 275.437 103.63 318.312 103.63C378.893 103.63 399.151 196.966 398.396 221.989C397.64 247.012 358.072 340.989 358.072 340.989Z" fill="#EEEEEE" stroke="black" stroke-width="1.39887"/>
<path d="M314.697 342.877L315.299 337.645L358.651 339.387L357.695 347.795C356.15 361.389 342.534 370.155 329.519 365.935C319.72 362.757 313.52 353.111 314.697 342.877Z" fill="#F5B9AB" stroke="black" stroke-width="1.39887" stroke-linejoin="round"/>
<path d="M252.211 257.602C224.208 230.451 259.008 140.516 264.684 129.813C272.947 114.561 297.75 88.0278 330.852 103.912C380.909 127.932 358.035 246.78 349.037 287.978L252.211 257.602Z" fill="#EEEEEE" stroke="black" stroke-width="1.39887"/>
<path d="M34.1542 351.857L29.6416 311.065C29.6416 311.065 134.411 277.111 220.758 264.371L339.316 274.612C357.125 316.696 348.342 394.038 216.256 358.481L34.1542 351.857Z" fill="#00ADB5" stroke="black" stroke-width="1.39887"/>
<path fill-rule="evenodd" clip-rule="evenodd" d="M161.109 280.389L142.494 338.285L103.438 336.377L85.617 228.371C82.6647 210.479 96.4687 194.21 114.603 194.21L138.767 194.21L140.436 191.601L148.548 194.21C155.031 194.218 160.901 196.281 165.658 199.714L329.786 252.51C355.168 260.675 366.585 290.144 353.327 313.278L328.219 357.092C315.186 379.835 284.714 385.179 264.72 368.228L161.109 280.389Z" fill="#00ADB5"/>
<path d="M161.109 280.389L161.561 279.855L160.763 279.179L160.443 280.175L161.109 280.389ZM142.494 338.285L142.46 338.983L142.996 339.009L143.16 338.499L142.494 338.285ZM103.438 336.377L102.747 336.49L102.839 337.048L103.403 337.075L103.438 336.377ZM85.617 228.371L86.3071 228.257L85.617 228.371ZM114.603 194.21V194.91V194.21ZM138.767 194.21V194.91H139.15L139.356 194.587L138.767 194.21ZM140.436 191.601L140.651 190.935L140.138 190.77L139.847 191.224L140.436 191.601ZM148.548 194.21L148.334 194.876L148.438 194.91L148.547 194.91L148.548 194.21ZM165.658 199.714L165.249 200.281L165.339 200.346L165.444 200.38L165.658 199.714ZM329.786 252.51L330 251.844L329.786 252.51ZM353.327 313.278L353.934 313.626L353.327 313.278ZM328.219 357.092L327.612 356.744L328.219 357.092ZM264.72 368.228L265.172 367.694L264.72 368.228ZM160.443 280.175L141.828 338.07L143.16 338.499L161.775 280.603L160.443 280.175ZM142.528 337.586L103.472 335.678L103.403 337.075L142.46 338.983L142.528 337.586ZM104.128 336.263L86.3071 228.257L84.9269 228.485L102.747 336.49L104.128 336.263ZM86.3071 228.257C83.4251 210.791 96.9004 194.91 114.603 194.91L114.603 193.511C96.0369 193.511 81.9043 210.166 84.9269 228.485L86.3071 228.257ZM114.603 194.91L138.767 194.91V193.511L114.603 193.511V194.91ZM139.356 194.587L141.026 191.978L139.847 191.224L138.178 193.833L139.356 194.587ZM140.222 192.267L148.334 194.876L148.762 193.544L140.651 190.935L140.222 192.267ZM148.547 194.91C154.879 194.917 160.606 196.931 165.249 200.281L166.068 199.147C161.195 195.631 155.183 193.519 148.549 193.511L148.547 194.91ZM165.444 200.38L329.571 253.176L330 251.844L165.873 199.048L165.444 200.38ZM329.571 253.176C354.53 261.204 365.757 290.182 352.72 312.931L353.934 313.626C367.412 290.106 355.806 260.145 330 251.844L329.571 253.176ZM352.72 312.931L327.612 356.744L328.826 357.44L353.934 313.626L352.72 312.931ZM327.612 356.744C314.796 379.108 284.833 384.363 265.172 367.694L264.267 368.761C284.595 385.995 315.575 380.562 328.826 357.44L327.612 356.744ZM265.172 367.694L161.561 279.855L160.657 280.923L264.267 368.761L265.172 367.694Z" fill="black"/>
<path d="M102.988 335.936L142.926 338.298L146.022 371.825C146.022 371.825 110.986 370.809 89.7321 364.161L104.018 357.14L102.988 335.936Z" fill="#EEEEEE" stroke="black" stroke-width="1.39887" stroke-linejoin="round"/>
<rect width="97.773" height="18.3324" rx="2.00878" transform="matrix(0.258819 0.965926 0.965926 -0.258819 89.5281 91.5376)" fill="#EEEEEE" stroke="black" stroke-width="1.39887"/>
<rect width="97.773" height="18.3324" rx="2.00878" transform="matrix(-1 0 0 1 208.723 176.418)" fill="#00ADB5" stroke="black" stroke-width="1.39887"/>
<path d="M29.9524 311.095L34.8922 351.877L5.0809 360.105C5.0809 360.105 -0.535751 324.966 2.18598 302.521L12.0313 315.456L29.9524 311.095Z" fill="#EEEEEE" stroke="black" stroke-width="1.39887" stroke-linejoin="round"/>
<path d="M177.994 205.615L200.366 168.338L268.96 205.689C265.815 162.582 295.402 100.546 326.471 104.325C380.976 110.953 340.821 245.301 305.116 268.983C269.41 292.664 177.994 205.615 177.994 205.615Z" fill="#EEEEEE"/>
<path d="M348.174 186.777C339.738 222.124 321.933 257.829 305.116 268.983C269.41 292.664 177.994 205.615 177.994 205.615L200.366 168.338L268.96 205.689L292.274 147.2" stroke="black" stroke-width="1.39887"/>
<path d="M196.293 165.51L200.578 168.573L178.038 205.645L171.148 200.734C160.007 192.792 158.94 176.633 168.941 167.296C176.471 160.266 187.913 159.519 196.293 165.51Z" fill="#F5B9AB" stroke="black" stroke-width="1.39887" stroke-linejoin="round"/>
</svg>

<svg xmlns="http://www.w3.org/2000/svg" width="401" height="473" fill="none">
    <ellipse cx="175" cy="372" fill="#000" fill-opacity=".5" rx="174" ry="12"/>
    <path fill="#F5B9AB" fill-rule="evenodd" d="M290.61 94.86a22.5 22.5 0 0 1-6.89-4c-16.02-13.65-9.15-34.25.54-44.97 9.7-10.72 69.02-6.45 41.04 43.23l-.36.21c-3.13 9.96-.5 18.5 2.68 28.74 1.29 4.18 2.67 8.64 3.78 13.6l-29.68-2.12c-8.16-11.08-11.25-22.25-11.1-34.69Z" clip-rule="evenodd"/>
    <path fill="#000" d="m283.72 90.86-.45.53.45-.53Zm6.9 4 .23-.66c.28.1.46.37.46.67h-.7Zm-6.36-48.97.52.47-.52-.47Zm41.04 43.23.6.34a.7.7 0 0 1-.24.26l-.36-.6Zm-.36.21-.67-.2a.7.7 0 0 1 .31-.4l.36.6Zm2.68 28.74-.67.2.67-.2Zm3.78 13.6.68-.15a.7.7 0 0 1-.73.85l.05-.7Zm-29.68-2.12-.05.7a.7.7 0 0 1-.52-.29l.57-.41Zm-17.55-39.22a21.67 21.67 0 0 0 6.68 3.87l-.48 1.32a23.06 23.06 0 0 1-7.1-4.13l.9-1.06Zm.61-43.97c-4.76 5.27-8.83 12.97-9.74 21-.9 7.99 1.32 16.31 9.13 22.97l-.9 1.06c-8.21-7-10.57-15.8-9.62-24.2.95-8.36 5.17-16.32 10.1-21.77l1.03.94Zm39.91 42.41c6.95-12.33 8.4-21.72 6.69-28.7-1.72-6.96-6.63-11.68-12.77-14.58-6.15-2.91-13.48-3.98-19.87-3.66-3.2.17-6.14.68-8.56 1.47-2.44.79-4.3 1.85-5.4 3.06l-1.03-.94c1.32-1.47 3.44-2.62 6-3.45a35.07 35.07 0 0 1 8.92-1.53c6.58-.34 14.14.75 20.54 3.78 6.4 3.04 11.69 8.04 13.53 15.51 1.83 7.46.21 17.23-6.83 29.73l-1.22-.69Zm-.1-.04.35-.21.72 1.2-.37.22-.7-1.21Zm2.36 29.55c-3.16-10.22-5.88-18.96-2.68-29.16l1.34.42c-3.06 9.72-.5 18.05 2.67 28.33l-1.33.4Zm3.76 13.54a172.8 172.8 0 0 0-3.76-13.54l1.33-.41c1.3 4.17 2.68 8.66 3.8 13.65l-1.37.3Zm-28.94-2.97 29.68 2.13-.1 1.39-29.68-2.13.1-1.4ZM291.3 94.87c-.14 12.3 2.9 23.31 10.97 34.26l-1.13.83c-8.25-11.2-11.39-22.53-11.24-35.1l1.4.01Z"/>
    <path fill="#00ADB5" stroke="#000" stroke-width="1.4" d="M330.62 59.12c4.65 6.46-.35 22.42-4.05 26.41 30.59-16.97 11.23-55.25 1.79-48.27-1.54-14.16-17.78-19.15-28.85-7.18-27.76-22.42-29.22 15.78-19.43 21.6 9.8 5.8 21.7.27 27.86 3.26 6.17 3 9.98 21.15 11.98 11.07 2-10.07 4.9-14.97 10.7-6.89Z"/>
    <path fill="#EEE" stroke="#000" stroke-width="1.4" d="m358.07 340.99-43.05-3.13L325.38 222s-49.94-118.36-7.07-118.36c60.58 0 80.84 93.34 80.09 118.36-.76 25.02-40.33 119-40.33 119Z"/>
    <path fill="#F5B9AB" stroke="#000" stroke-linejoin="round" stroke-width="1.4" d="m314.7 342.88.6-5.24 43.35 1.75-.95 8.4a21.64 21.64 0 1 1-43-4.91Z"/>
    <path fill="#EEE" stroke="#000" stroke-width="1.4" d="M252.21 257.6c-28-27.15 6.8-117.08 12.47-127.79 8.27-15.25 33.07-41.78 66.17-25.9 50.06 24.02 27.19 142.87 18.19 184.07L252.2 257.6Z"/>
    <path fill="#00ADB5" stroke="#000" stroke-width="1.4" d="m34.15 351.86-4.5-40.8s104.76-33.95 191.1-46.69l118.57 10.24c17.8 42.09 9.02 119.43-123.06 83.87l-182.1-6.62Z"/>
    <path fill="#00ADB5" fill-rule="evenodd" d="m161.1 280.39-18.6 57.9-39.06-1.91-17.82-108a29.38 29.38 0 0 1 28.98-34.17h24.17l1.67-2.6 8.1 2.6c6.5 0 12.36 2.07 17.12 5.5l164.13 52.8a41.93 41.93 0 0 1 23.54 60.77l-25.11 43.81a41.93 41.93 0 0 1-63.5 11.14l-103.61-87.84Z" clip-rule="evenodd"/>
    <path fill="#000" d="m161.1 280.39.46-.53-.8-.68-.32 1 .67.2Zm-18.6 57.9-.04.7.54.02.16-.51-.67-.21Zm-39.06-1.91-.7.11.1.56.56.02.04-.7Zm-17.82-108 .69-.12-.7.11Zm28.98-34.17v.7-.7Zm24.17 0v.7h.38l.2-.32-.58-.38Zm1.67-2.6.21-.68-.51-.16-.3.45.6.38Zm8.1 2.6-.2.67.1.03h.1v-.7Zm17.12 5.5-.41.57.09.07.1.03.22-.67Zm164.13 52.8.21-.67-.21.67Zm23.54 60.77.6.35-.6-.35Zm-25.11 43.81-.6-.35.6.35Zm-63.5 11.14.45-.54-.45.54Zm-104.28-88.06-18.61 57.9 1.33.43 18.62-57.9-1.34-.43Zm-17.91 57.42-39.06-1.91-.07 1.4 39.06 1.9.07-1.4Zm-38.4-1.33-17.82-108-1.38.23 17.82 108 1.38-.23Zm-17.82-108a28.68 28.68 0 0 1 28.3-33.35v-1.4a30.08 30.08 0 0 0-29.68 34.98l1.38-.23Zm28.3-33.35h24.16v-1.4H114.6v1.4Zm24.75-.32 1.67-2.61-1.18-.76-1.67 2.61 1.18.76Zm.86-2.32 8.11 2.6.43-1.33-8.1-2.6-.44 1.33Zm8.33 2.64c6.33 0 12.06 2.02 16.7 5.37l.82-1.13a29.82 29.82 0 0 0-17.52-5.64v1.4Zm16.9 5.47 164.12 52.8.43-1.34-164.13-52.8-.43 1.34Zm164.12 52.8a41.23 41.23 0 0 1 23.15 59.75l1.21.7A42.63 42.63 0 0 0 330 251.84l-.43 1.34Zm23.15 59.75-25.1 43.81 1.2.7 25.11-43.81-1.21-.7Zm-25.1 43.81a41.23 41.23 0 0 1-62.45 10.95l-.9 1.07a42.63 42.63 0 0 0 64.56-11.32l-1.22-.7Zm-62.45 10.95-103.6-87.83-.91 1.06 103.6 87.84.91-1.07Z"/>
    <path fill="#EEE" stroke="#000" stroke-linejoin="round" stroke-width="1.4" d="m102.99 335.94 39.94 2.36 3.1 33.52s-35.04-1.01-56.3-7.66l14.29-7.02-1.03-21.2Z"/>
    <rect width="97.77" height="18.33" fill="#EEE" stroke="#000" stroke-width="1.4" rx="2.01" transform="scale(1 -1) rotate(-75 -14.88 -104.1)"/>
    <rect width="97.77" height="18.33" fill="#00ADB5" stroke="#000" stroke-width="1.4" rx="2.01" transform="matrix(-1 0 0 1 208.72 176.42)"/>
    <path fill="#EEE" stroke="#000" stroke-linejoin="round" stroke-width="1.4" d="m29.95 311.1 4.94 40.78-29.8 8.23s-5.63-35.14-2.9-57.59l9.84 12.94 17.92-4.36Z"/>
    <path fill="#EEE" d="m178 205.62 22.37-37.28 68.59 37.35c-3.14-43.1 26.44-105.14 57.51-101.36 54.5 6.62 14.35 140.97-21.35 164.65-35.71 23.68-127.13-63.37-127.13-63.37Z"/>
    <path stroke="#000" stroke-width="1.4" d="M348.17 186.78c-8.43 35.34-26.24 71.05-43.05 82.2-35.71 23.68-127.13-63.37-127.13-63.37l22.38-37.27 68.59 37.35 23.31-58.49"/>
    <path fill="#F5B9AB" stroke="#000" stroke-linejoin="round" stroke-width="1.4" d="m196.3 165.51 4.28 3.06-22.54 37.08-6.9-4.92a21.64 21.64 0 1 1 25.15-35.22Z"/>
</svg>
